Papirus/64x64/apps/com.github.bartzaalberg.php-tester.svg

<?xml version="1.0" encoding="UTF-8" standalone="no"?>
<svg
   id="_图层_1"
   version="1.1"
   viewBox="0 0 64 64" width="64" height="64"
   sodipodi:docname="com.github.bartzaalberg.php-tester.svg"
   xml:space="preserve"
   inkscape:version="1.4 (e7c3feb100, 2024-10-09)"
   xmlns:inkscape="http://www.inkscape.org/namespaces/inkscape"
   xmlns:sodipodi="http://sodipodi.sourceforge.net/DTD/sodipodi-0.dtd"
   xmlns="http://www.w3.org/2000/svg"
   xmlns:svg="http://www.w3.org/2000/svg"><sodipodi:namedview
     id="namedview26"
     pagecolor="#505050"
     bordercolor="#eeeeee"
     borderopacity="1"
     inkscape:showpageshadow="0"
     inkscape:pageopacity="0"
     inkscape:pagecheckerboard="0"
     inkscape:deskcolor="#505050"
     inkscape:zoom="10.6875"
     inkscape:cx="32"
     inkscape:cy="32.093567"
     inkscape:window-width="1920"
     inkscape:window-height="939"
     inkscape:window-x="0"
     inkscape:window-y="34"
     inkscape:window-maximized="1"
     inkscape:current-layer="_图层_1" /><!-- Generator: Adobe Illustrator 29.0.1, SVG Export Plug-In . SVG Version: 2.1.0 Build 192)  --><defs
     id="defs6"><style
       id="style1">
      .st0 {
        fill-opacity: .5;
      }

      .st0, .st1, .st2, .st3, .st4, .st5, .st6, .st7 {
        fill: #fff;
      }

      .st8 {
        fill: #133c9a;
      }

      .st2, .st9 {
        display: none;
      }

      .st3 {
        fill-opacity: .2;
      }

      .st4 {
        fill-opacity: .9;
      }

      .st10 {
        fill: #3370ff;
      }

      .st11 {
        fill: url(#_未命名的渐变_3);
      }

      .st12 {
        fill: url(#_未命名的渐变);
      }

      .st5 {
        fill-opacity: .3;
      }

      .st6 {
        fill-opacity: 0;
      }

      .st7 {
        fill-opacity: .7;
      }

      .st13 {
        fill: #00d6b9;
      }

      .st14 {
        fill: url(#_未命名的渐变_2);
      }
    </style><radialGradient
       id="_未命名的渐变"
       data-name="未命名的渐变"
       cx="123.9"
       cy="-40.2"
       fx="123.9"
       fy="-40.2"
       r="59.4"
       gradientTransform="translate(-26.8 25.5) scale(.6 -.7)"
       gradientUnits="userSpaceOnUse"><stop
         offset="0"
         stop-color="#db202e"
         id="stop1" /><stop
         offset="1"
         stop-color="#e01b24"
         id="stop2" /></radialGradient><radialGradient
       id="_未命名的渐变_2"
       data-name="未命名的渐变 2"
       cx="67.6"
       cy="26.8"
       fx="67.6"
       fy="26.8"
       r="105.2"
       gradientTransform="translate(-26.6 25.3) scale(.6 -.7)"
       gradientUnits="userSpaceOnUse"><stop
         offset="0"
         stop-color="#ffb648"
         id="stop3" /><stop
         offset="1"
         stop-color="#ff7800"
         stop-opacity="0"
         id="stop4" /></radialGradient><radialGradient
       id="_未命名的渐变_3"
       data-name="未命名的渐变 3"
       cx="61.7"
       cy="18.6"
       fx="61.7"
       fy="18.6"
       r="68"
       gradientTransform="translate(-26.8 25.8) scale(.6 -.7)"
       gradientUnits="userSpaceOnUse"><stop
         offset="0"
         stop-color="#c64600"
         id="stop5" /><stop
         offset="1"
         stop-color="#a51d2d"
         id="stop6" /></radialGradient></defs><path
     class="st1"
     d="M47.5,64.1H13.8c-7.6,0-13.8-6.3-13.8-13.8V13.7C0,6.2,6.2,0,13.7,0h36.6c7.5,0,13.7,6.2,13.7,13.7v36.6c0,7.5-6.2,13.7-13.7,13.7h-2.9.1Z"
     id="path6"
     style="fill:#465489;fill-opacity:1" /><g
     id="g26"
     transform="matrix(1.1436926,0,0,1.1428132,-4.5981621,-4.533241)"><path
       style="opacity:0.2;isolation:isolate;fill-rule:evenodd"
       d="M 29.636719,23 C 28.802463,27.43235 27.834256,32.546488 27,36.974609 h 2.789062 C 30.26968,34.432174 30.743593,31.512839 31.21875,29 c 0.948949,0 1.84903,-0.03311 2.746094,0.0078 0.882045,0.03946 1.217187,0.482027 1.068359,1.376954 -0.204809,1.220481 -0.444631,2.837024 -0.669922,4.054687 -0.155655,0.839962 -0.314667,1.681124 -0.478515,2.560547 0.91345,-2e-6 1.788256,0.0024 2.662109,-0.01172 0.071,-0.0014 0.18459,-0.118041 0.205078,-0.201172 0.07783,-0.312871 0.124882,-0.636571 0.183594,-0.955078 0.335887,-1.809583 0.695327,-3.817048 1.003906,-5.630859 0.271711,-1.601001 -0.367813,-2.61857 -1.884765,-2.951172 -0.718199,-0.157846 -1.469718,-0.177105 -2.207032,-0.210938 -0.72912,-0.03382 -1.460956,-0.0059 -2.21875,-0.0059 C 31.851465,25.842318 32.204,24.179611 32.423828,23 Z m -12.488281,4.003906 c -0.08921,0 -0.1791,0.01295 -0.275391,0.02148 C 16.007835,31.455177 14.865212,36.568804 14,41 h 2.914062 c 0.219491,-1.113083 0.722212,-2.592287 0.921876,-3.675781 0.03823,-0.208527 0.121528,-0.259222 0.318359,-0.257813 0.957256,0.0042 1.916669,0.02469 2.871094,-0.01758 0.601825,-0.02677 1.208135,-0.105748 1.792968,-0.248047 2.190643,-0.53259 4.408504,-3.158964 4.16211,-6.453125 -0.12603,-1.689349 -1.086473,-2.733755 -2.746094,-3.136718 -0.505533,-0.12399 -1.034993,-0.192174 -1.554687,-0.199219 -1.843711,-0.02254 -3.687543,-0.0078 -5.53125,-0.0078 z m 23,0 c -0.08921,0 -0.1791,0.01295 -0.275391,0.02148 C 39.007835,31.455177 37.865212,36.568804 37,41 h 2.914062 c 0.219491,-1.113083 0.722211,-2.592287 0.921876,-3.675781 0.03823,-0.208527 0.121528,-0.259222 0.318359,-0.257813 0.957256,0.0042 1.916669,0.02469 2.871094,-0.01758 0.601825,-0.02677 1.208135,-0.105748 1.792968,-0.248047 2.190643,-0.53259 4.408504,-3.158964 4.16211,-6.453125 -0.12603,-1.689349 -1.086473,-2.733755 -2.746094,-3.136718 -0.505533,-0.12399 -1.034993,-0.192174 -1.554687,-0.199219 -1.843711,-0.02254 -3.687542,-0.0078 -5.53125,-0.0078 z m -20.75,2.033203 c 1.101693,0.06481 2.187614,0.06582 3.253906,0.210938 0.933183,0.128216 1.330665,0.665144 1.291015,1.603515 -0.02549,0.572041 -0.13047,1.450503 -0.289062,2 -0.352599,1.222981 -1.222811,1.903035 -2.474609,2.03125 -0.934599,0.09581 -1.882391,0.08359 -2.890626,0.123047 0.375257,-1.919011 0.735536,-4.055376 1.109376,-5.96875 z m 23,0 c 1.101694,0.06481 2.187614,0.06582 3.253906,0.210938 0.933183,0.128216 1.330665,0.665144 1.291015,1.603515 -0.02549,0.572041 -0.13047,1.450503 -0.289062,2 -0.352599,1.222981 -1.222811,1.903035 -2.474609,2.03125 -0.934599,0.09581 -1.88239,0.08359 -2.890626,0.123047 0.375257,-1.919011 0.735536,-4.055376 1.109376,-5.96875 z"
       id="path2" /><path
       style="isolation:isolate;fill:#ffffff;fill-rule:evenodd"
       d="M 29.636719,22 C 28.802463,26.43235 27.834256,31.546488 27,35.974609 h 2.789062 C 30.26968,33.432174 30.743593,30.512839 31.21875,28 c 0.948949,0 1.84903,-0.03311 2.746094,0.0078 0.882045,0.03946 1.217187,0.482027 1.068359,1.376954 -0.204809,1.220481 -0.444631,2.837024 -0.669922,4.054687 -0.155655,0.839962 -0.314667,1.681124 -0.478515,2.560547 0.91345,-2e-6 1.788256,0.0024 2.662109,-0.01172 0.071,-0.0014 0.18459,-0.118041 0.205078,-0.201172 0.07783,-0.312871 0.124882,-0.636571 0.183594,-0.955078 0.335887,-1.809583 0.695327,-3.817048 1.003906,-5.630859 0.271711,-1.601001 -0.367813,-2.61857 -1.884765,-2.951172 -0.718199,-0.157846 -1.469718,-0.177105 -2.207032,-0.210938 -0.72912,-0.03382 -1.460956,-0.0059 -2.21875,-0.0059 C 31.851465,24.842318 32.204,23.179611 32.423828,22 Z m -12.488281,4.003906 c -0.08921,0 -0.1791,0.01295 -0.275391,0.02148 C 16.007835,30.455177 14.865212,35.568804 14,40 h 2.914062 c 0.219491,-1.113083 0.722212,-2.592287 0.921876,-3.675781 0.03823,-0.208527 0.121528,-0.259222 0.318359,-0.257813 0.957256,0.0042 1.916669,0.02469 2.871094,-0.01758 0.601825,-0.02677 1.208135,-0.105748 1.792968,-0.248047 2.190643,-0.53259 4.408504,-3.158964 4.16211,-6.453125 -0.12603,-1.689349 -1.086473,-2.733755 -2.746094,-3.136718 -0.505533,-0.12399 -1.034993,-0.192174 -1.554687,-0.199219 -1.843711,-0.02254 -3.687543,-0.0078 -5.53125,-0.0078 z m 23,0 c -0.08921,0 -0.1791,0.01295 -0.275391,0.02148 C 39.007835,30.455177 37.865212,35.568804 37,40 h 2.914062 c 0.219491,-1.113083 0.722211,-2.592287 0.921876,-3.675781 0.03823,-0.208527 0.121528,-0.259222 0.318359,-0.257813 0.957256,0.0042 1.916669,0.02469 2.871094,-0.01758 0.601825,-0.02677 1.208135,-0.105748 1.792968,-0.248047 2.190643,-0.53259 4.408504,-3.158964 4.16211,-6.453125 -0.12603,-1.689349 -1.086473,-2.733755 -2.746094,-3.136718 -0.505533,-0.12399 -1.034993,-0.192174 -1.554687,-0.199219 -1.843711,-0.02254 -3.687542,-0.0078 -5.53125,-0.0078 z m -20.75,2.033203 c 1.101693,0.06481 2.187614,0.06582 3.253906,0.210938 0.933183,0.128216 1.330665,0.665144 1.291015,1.603515 -0.02549,0.572041 -0.13047,1.450503 -0.289062,2 -0.352599,1.222981 -1.222811,1.903035 -2.474609,2.03125 -0.934599,0.09581 -1.882391,0.08359 -2.890626,0.123047 0.375257,-1.919011 0.735536,-4.055376 1.109376,-5.96875 z m 23,0 c 1.101694,0.06481 2.187614,0.06582 3.253906,0.210938 0.933183,0.128216 1.330665,0.665144 1.291015,1.603515 -0.02549,0.572041 -0.13047,1.450503 -0.289062,2 -0.352599,1.222981 -1.222811,1.903035 -2.474609,2.03125 -0.934599,0.09581 -1.88239,0.08359 -2.890626,0.123047 0.375257,-1.919011 0.735536,-4.055376 1.109376,-5.96875 z"
       id="path3" /></g></svg>

<svg xmlns="http://www.w3.org/2000/svg" width="64" height="64" version="1">
 <rect style="opacity:0.2" width="56" height="56" x="4" y="5" rx="2.8" ry="2.8"/>
 <rect style="fill:#465489" width="56" height="56" x="4" y="4" rx="2.8" ry="2.8"/>
 <path style="opacity:0.2;isolation:isolate;fill-rule:evenodd" d="M 29.636719,23 C 28.802463,27.43235 27.834256,32.546488 27,36.974609 l 2.789062,0 C 30.26968,34.432174 30.743593,31.512839 31.21875,29 c 0.948949,0 1.84903,-0.03311 2.746094,0.0078 0.882045,0.03946 1.217187,0.482027 1.068359,1.376954 -0.204809,1.220481 -0.444631,2.837024 -0.669922,4.054687 -0.155655,0.839962 -0.314667,1.681124 -0.478515,2.560547 0.91345,-2e-6 1.788256,0.0024 2.662109,-0.01172 0.071,-0.0014 0.18459,-0.118041 0.205078,-0.201172 0.07783,-0.312871 0.124882,-0.636571 0.183594,-0.955078 0.335887,-1.809583 0.695327,-3.817048 1.003906,-5.630859 0.271711,-1.601001 -0.367813,-2.61857 -1.884765,-2.951172 -0.718199,-0.157846 -1.469718,-0.177105 -2.207032,-0.210938 -0.72912,-0.03382 -1.460956,-0.0059 -2.21875,-0.0059 C 31.851465,25.842318 32.204,24.179611 32.423828,23 l -2.787109,0 z m -12.488281,4.003906 c -0.08921,0 -0.1791,0.01295 -0.275391,0.02148 C 16.007835,31.455177 14.865212,36.568804 14,41 l 2.914062,0 c 0.219491,-1.113083 0.722212,-2.592287 0.921876,-3.675781 0.03823,-0.208527 0.121528,-0.259222 0.318359,-0.257813 0.957256,0.0042 1.916669,0.02469 2.871094,-0.01758 0.601825,-0.02677 1.208135,-0.105748 1.792968,-0.248047 2.190643,-0.53259 4.408504,-3.158964 4.16211,-6.453125 -0.12603,-1.689349 -1.086473,-2.733755 -2.746094,-3.136718 -0.505533,-0.12399 -1.034993,-0.192174 -1.554687,-0.199219 -1.843711,-0.02254 -3.687543,-0.0078 -5.53125,-0.0078 z m 23,0 c -0.08921,0 -0.1791,0.01295 -0.275391,0.02148 C 39.007835,31.455177 37.865212,36.568804 37,41 l 2.914062,0 c 0.219491,-1.113083 0.722211,-2.592287 0.921876,-3.675781 0.03823,-0.208527 0.121528,-0.259222 0.318359,-0.257813 0.957256,0.0042 1.916669,0.02469 2.871094,-0.01758 0.601825,-0.02677 1.208135,-0.105748 1.792968,-0.248047 2.190643,-0.53259 4.408504,-3.158964 4.16211,-6.453125 -0.12603,-1.689349 -1.086473,-2.733755 -2.746094,-3.136718 -0.505533,-0.12399 -1.034993,-0.192174 -1.554687,-0.199219 -1.843711,-0.02254 -3.687542,-0.0078 -5.53125,-0.0078 z m -20.75,2.033203 c 1.101693,0.06481 2.187614,0.06582 3.253906,0.210938 0.933183,0.128216 1.330665,0.665144 1.291015,1.603515 -0.02549,0.572041 -0.13047,1.450503 -0.289062,2 -0.352599,1.222981 -1.222811,1.903035 -2.474609,2.03125 -0.934599,0.09581 -1.882391,0.08359 -2.890626,0.123047 0.375257,-1.919011 0.735536,-4.055376 1.109376,-5.96875 z m 23,0 c 1.101694,0.06481 2.187614,0.06582 3.253906,0.210938 0.933183,0.128216 1.330665,0.665144 1.291015,1.603515 -0.02549,0.572041 -0.13047,1.450503 -0.289062,2 -0.352599,1.222981 -1.222811,1.903035 -2.474609,2.03125 -0.934599,0.09581 -1.88239,0.08359 -2.890626,0.123047 0.375257,-1.919011 0.735536,-4.055376 1.109376,-5.96875 z"/>
 <path style="isolation:isolate;fill:#ffffff;fill-rule:evenodd" d="M 29.636719 22 C 28.802463 26.43235 27.834256 31.546488 27 35.974609 L 29.789062 35.974609 C 30.26968 33.432174 30.743593 30.512839 31.21875 28 C 32.167699 28 33.06778 27.966893 33.964844 28.007812 C 34.846889 28.047272 35.182031 28.489839 35.033203 29.384766 C 34.828394 30.605247 34.588572 32.22179 34.363281 33.439453 C 34.207626 34.279415 34.048614 35.120577 33.884766 36 C 34.798216 35.999998 35.673022 36.002351 36.546875 35.988281 C 36.617875 35.986881 36.731465 35.87024 36.751953 35.787109 C 36.829783 35.474238 36.876835 35.150538 36.935547 34.832031 C 37.271434 33.022448 37.630874 31.014983 37.939453 29.201172 C 38.211164 27.600171 37.57164 26.582602 36.054688 26.25 C 35.336489 26.092154 34.58497 26.072895 33.847656 26.039062 C 33.118536 26.005243 32.3867 26.033203 31.628906 26.033203 C 31.851465 24.842318 32.204 23.179611 32.423828 22 L 29.636719 22 z M 17.148438 26.003906 C 17.059227 26.003906 16.969338 26.016861 16.873047 26.025391 C 16.007835 30.455177 14.865212 35.568804 14 40 L 16.914062 40 C 17.133553 38.886917 17.636274 37.407713 17.835938 36.324219 C 17.874167 36.115692 17.957466 36.064997 18.154297 36.066406 C 19.111553 36.070606 20.070966 36.091098 21.025391 36.048828 C 21.627216 36.022058 22.233526 35.94308 22.818359 35.800781 C 25.009002 35.268191 27.226863 32.641817 26.980469 29.347656 C 26.854439 27.658307 25.893996 26.613901 24.234375 26.210938 C 23.728842 26.086948 23.199382 26.018764 22.679688 26.011719 C 20.835977 25.989179 18.992145 26.003906 17.148438 26.003906 z M 40.148438 26.003906 C 40.059227 26.003906 39.969338 26.016861 39.873047 26.025391 C 39.007835 30.455177 37.865212 35.568804 37 40 L 39.914062 40 C 40.133553 38.886917 40.636273 37.407713 40.835938 36.324219 C 40.874167 36.115692 40.957466 36.064997 41.154297 36.066406 C 42.111553 36.070606 43.070966 36.091098 44.025391 36.048828 C 44.627216 36.022058 45.233526 35.94308 45.818359 35.800781 C 48.009002 35.268191 50.226863 32.641817 49.980469 29.347656 C 49.854439 27.658307 48.893996 26.613901 47.234375 26.210938 C 46.728842 26.086948 46.199382 26.018764 45.679688 26.011719 C 43.835977 25.989179 41.992146 26.003906 40.148438 26.003906 z M 19.398438 28.037109 C 20.500131 28.101919 21.586052 28.102925 22.652344 28.248047 C 23.585527 28.376263 23.983009 28.913191 23.943359 29.851562 C 23.917869 30.423603 23.812889 31.302065 23.654297 31.851562 C 23.301698 33.074543 22.431486 33.754597 21.179688 33.882812 C 20.245089 33.978623 19.297297 33.966405 18.289062 34.005859 C 18.664319 32.086848 19.024598 29.950483 19.398438 28.037109 z M 42.398438 28.037109 C 43.500132 28.101919 44.586052 28.102925 45.652344 28.248047 C 46.585527 28.376263 46.983009 28.913191 46.943359 29.851562 C 46.917869 30.423603 46.812889 31.302065 46.654297 31.851562 C 46.301698 33.074543 45.431486 33.754597 44.179688 33.882812 C 43.245089 33.978623 42.297298 33.966405 41.289062 34.005859 C 41.664319 32.086848 42.024598 29.950483 42.398438 28.037109 z"/>
 <path style="opacity:0.1;fill:#ffffff" d="M 6.8007812 4 C 5.2495812 4 4 5.2495812 4 6.8007812 L 4 7.8007812 C 4 6.2495813 5.2495812 5 6.8007812 5 L 57.199219 5 C 58.750419 5 60 6.2495812 60 7.8007812 L 60 6.8007812 C 60 5.2495813 58.750419 4 57.199219 4 L 6.8007812 4 z"/>
</svg>
